X:2
T:Polska
R:Polska
O:Risinge, Östergötland
B:Ög 10
C:E. Andersson
S:Gustav Andersson
N:Smus Ög 10 bild 4
M:3/4
L:1/8
K:G
g2 de dc/2 | Bc AB/2A/2 G2 | g2 ee aa | g2 d4 :|:
e2 ce g/2a/2g/2e/2 | dc B/2c/2B/2A/2 Bd | dece (g/2a/2)g/2e/2 |
dc B/2c/2B/2A/2 Bd | g2 e2 a2 | fa g4 :|

